;Generated by Cura LulzBot Edition GCodeWriter Version: 3.6.20
;FLAVOR:Marlin
;TIME:3700
;Filament used: 1.7984m
;Layer height: 0.25
;Generated with Cura_SteamEngine 3.6.20
M82 ;absolute extrusion mode
;This G-Code has been generated specifically for the LulzBot Mini 2 with SE 0.5mm Tool Head
M73 P0                  ; clear GLCD progress bar
M75 					; Start GLCD Print Timer
G26 					; clear potential 'probe fail' condition
M107 					; disable fans
M420 S0                 ; disable leveling matrix
G90 					; absolute positioning
M82 					; set extruder to absolute mode
G92 E0 					; set extruder position to 0
M140 S60.0 ; start bed heating up
G28 					; home all axes
G0 X0 Y187 Z156 F200 			; move away from endstops
M117 Mini 2 Wiping...			; progress indicator message on LCD
M109 R140 	; soften filament before retraction
G1 E-15 F75 				; retract filament
M109 R140 	; wait for extruder to reach wiping temp
G1 X45 Y176 F11520 			; move above wiper pad
G1 Z0 F1200 				; push nozzle into wiper
G1 X45 Y178 Z-.5 F4000		; wiping
G1 X55 Y176 Z-.5 F4000		; wiping
G1 X45 Y177 Z0 F4000		; wiping
G1 X55 Y176 F4000		; wiping
G1 X45 Y178 F4000		; wiping
G1 X55 Y176 F4000		; wiping
G1 X45 Y178 F4000		; wiping
G1 X55 Y176 F4000		; wiping
G1 X60 Y178 F4000		; wiping
G1 X80 Y176 F4000		; wiping
G1 X60 Y178 F4000		; wiping
G1 X80 Y176 F4000		; wiping
G1 X60 Y178 F4000		; wiping
G1 X90 Y176 F4000		; wiping
G1 X80 Y178 F4000		; wiping
G1 X100 Y176 F4000		; wiping
G1 X80 Y178 F4000		; wiping
G1 X100 Y176 F4000		; wiping
G1 X80 Y178 F4000		; wiping
G1 X100 Y176 F4000		; wiping
G1 X110 Y178 F4000		; wiping
G1 X100 Y176 F4000		; wiping
G1 X110 Y178 F4000		; wiping
G1 X100 Y176 F4000		; wiping
G1 X110 Y178 F4000		; wiping
G1 X115 Y176 Z-0.5 F1000	; wiping
G1 Z10					; raise extruder
G28 X0 Y0				; home X and Y
M109 R140	; wait for extruder to reach probe temp
M204 S300				; set probing acceleration
G29					; start auto-leveling sequence
M420 S1                     ; enable leveling matrix
M425 Z			     		; use measured Z backlash for compensation
M425 Z F0		     		; turn off measured Z backlash compensation. (if activated in the quality settings, this command will automatically be ignored)
M204 S2000				; restore standard acceleration
G1 X5 Y15 Z10 F5000			; move up off last probe point
G4 S1					; pause
M400					; wait for moves to finish
M117 Heating...				; progress indicator message on LCD
M109 R210 ; wait for extruder to reach initial printing temp
M190 R60.0 ; wait for bed to reach printing temp
G1 Z2 E0 F75				; prime tiny bit of filment into the nozzle
M117 Mini 2 Printing...		; progress indicator message on LCD

M221 S100 T0
G92 E0
G1 F600 E-1.75
;LAYER_COUNT:4
;LAYER:0
M107
G0 F2625 X21.667 Y37.885 Z0.425
;TYPE:SKIRT
G1 F600 E0
G1 F900 X22.153 Y37.684 E0.01752
G1 X27.893 Y35.845 E0.21829
G1 X32.99 Y33.878 E0.40028
G1 X37.979 Y31.618 E0.58272
G1 X42.826 Y29.084 E0.76491
G1 X47.525 Y26.278 E0.94722
G1 X52.057 Y23.211 E1.1295
G1 X56.405 Y19.896 E1.31163
G1 X60.572 Y16.329 E1.49434
G1 X64.507 Y12.556 E1.67594
G1 X67.826 Y9.017 E1.83755
G1 X68.203 Y8.674 E1.85453
G1 X68.628 Y8.394 E1.87148
G1 X69.093 Y8.183 E1.88849
G1 X69.584 Y8.048 E1.90546
G1 X70.09 Y7.992 E1.92241
G1 X70.354 Y7.994 E1.93121
G1 X82.559 Y8.586 E2.33824
G1 X83.065 Y8.65 E2.35523
G1 X83.554 Y8.793 E2.3722
G1 X84.015 Y9.01 E2.38917
G1 X84.436 Y9.297 E2.40614
G1 X84.662 Y9.497 E2.4162
G1 X88.537 Y13.248 E2.59584
G1 X92.669 Y16.824 E2.77787
G1 X97.016 Y20.177 E2.96074
G1 X101.537 Y23.272 E3.14324
G1 X106.204 Y26.093 E3.3249
G1 X111.046 Y28.657 E3.5074
G1 X116.046 Y30.954 E3.69069
G1 X118.489 Y31.955 E3.77863
G1 X118.491 Y31.956 E3.77871
G1 X123.707 Y33.835 E3.96338
G1 X128.946 Y35.392 E4.14544
G1 X134.29 Y36.66 E4.32839
G1 X139.431 Y37.582 E4.50237
G1 X139.924 Y37.711 E4.51935
G1 X140.39 Y37.916 E4.53631
G1 X140.819 Y38.19 E4.55326
G1 X141.2 Y38.529 E4.57025
G1 X141.523 Y38.923 E4.58722
G1 X141.781 Y39.362 E4.60418
G1 X141.967 Y39.837 E4.62118
G1 X142.076 Y40.335 E4.63816
G1 X142.107 Y40.781 E4.65305
G1 X142.106 Y150.762 E8.31656
G1 X142.066 Y151.27 E8.33353
G1 X141.947 Y151.765 E8.35049
G1 X141.752 Y152.236 E8.36747
G1 X141.486 Y152.671 E8.38445
G1 X141.156 Y153.058 E8.4014
G1 X140.769 Y153.39 E8.41838
G1 X140.334 Y153.656 E8.43536
G1 X139.864 Y153.852 E8.45233
G1 X139.369 Y153.971 E8.46929
G1 X138.856 Y154.012 E8.48643
G1 X23.144 Y154.012 E12.34084
G1 X22.636 Y153.972 E12.35781
G1 X22.141 Y153.853 E12.37477
G1 X21.67 Y153.658 E12.39175
G1 X21.235 Y153.392 E12.40873
G1 X20.848 Y153.062 E12.42568
G1 X20.516 Y152.675 E12.44266
G1 X20.25 Y152.24 E12.45964
G1 X20.054 Y151.77 E12.47661
G1 X19.935 Y151.275 E12.49357
G1 X19.894 Y150.762 E12.51071
G1 X19.895 Y40.779 E16.17428
G1 X19.935 Y40.271 E16.19126
G1 X20.054 Y39.776 E16.20821
G1 X20.249 Y39.305 E16.2252
G1 X20.515 Y38.87 E16.24218
G1 X20.845 Y38.483 E16.25912
G1 X21.232 Y38.151 E16.27611
G1 X21.667 Y37.885 E16.29309
G1 F600 E14.54309
;MESH:
G0 F2625 X23.883 Y40.1
G0 X23.899 Y41.527
G0 X67.687 Y41.114
G0 X67.616 Y41.044
;TYPE:WALL-INNER
G1 F600 E16.29309
G1 F900 X67.411 Y16.074 E17.12488
G1 X70.549 Y11.997 E17.29625
G1 X81.885 Y12.548 E17.67431
G1 X93.212 Y41.521 E18.71054
G1 X138.115 Y41.521 E20.20627
G1 X138.115 Y150.021 E23.82045
G1 X23.885 Y150.021 E27.62549
G1 X23.885 Y41.513 E31.23993
G1 X67.616 Y41.044 E32.69671
G0 F2625 X67.687 Y41.114
G0 X67.885 Y84.046
G0 X67.721 Y85.108
G0 X67.235 Y86.278
G0 X66.458 Y87.291
G0 X65.546 Y87.991
G0 X64.28 Y88.616
G0 X64.255 Y88.52
G1 F900 X64.659 Y88.391 E32.71084
G1 X65.05 Y88.23 E32.72492
G1 X65.425 Y88.035 E32.739
G1 X65.783 Y87.807 E32.75314
G1 X66.118 Y87.549 E32.76722
G1 X66.43 Y87.263 E32.78132
G1 X66.716 Y86.952 E32.7954
G1 X66.974 Y86.615 E32.80953
G1 X67.201 Y86.258 E32.82363
G1 X67.397 Y85.883 E32.83772
G1 X67.558 Y85.492 E32.85181
G1 X67.683 Y85.098 E32.86558
G1 X67.737 Y84.876 E32.87319
G1 X67.809 Y84.466 E32.88705
G1 X67.846 Y84.045 E32.90113
G1 X67.846 Y83.621 E32.91525
G1 X67.809 Y83.2 E32.92933
G1 X67.736 Y82.784 E32.9434
G1 X67.626 Y82.375 E32.95751
G1 X67.481 Y81.977 E32.97162
G1 X67.303 Y81.593 E32.98572
G1 X67.091 Y81.227 E32.99981
G1 X66.849 Y80.88 E33.0139
G1 X66.576 Y80.556 E33.02801
G1 X66.277 Y80.256 E33.04212
G1 X65.952 Y79.985 E33.05622
G1 X65.606 Y79.742 E33.0703
G1 X65.24 Y79.531 E33.08437
G1 X64.857 Y79.352 E33.09845
G1 X64.458 Y79.206 E33.11261
G1 X64.049 Y79.098 E33.1267
G1 X63.634 Y79.024 E33.14074
G1 X63.212 Y78.987 E33.15485
G1 X62.788 Y78.987 E33.16897
G1 X62.366 Y79.024 E33.18309
G1 X61.951 Y79.098 E33.19713
G1 X61.542 Y79.206 E33.21122
G1 X61.143 Y79.352 E33.22537
G1 X60.76 Y79.531 E33.23945
G1 X60.394 Y79.742 E33.25353
G1 X60.048 Y79.985 E33.26761
G1 X59.723 Y80.256 E33.28171
G1 X59.424 Y80.556 E33.29581
G1 X59.151 Y80.88 E33.30993
G1 X58.909 Y81.227 E33.32402
G1 X58.697 Y81.593 E33.33811
G1 X58.519 Y81.977 E33.35221
G1 X58.374 Y82.374 E33.36629
G1 X58.266 Y82.775 E33.38012
G1 X58.221 Y82.999 E33.38773
G1 X58.169 Y83.403 E33.4013
G1 X58.154 Y83.629 E33.40884
G1 X58.154 Y84.045 E33.4227
G1 X58.191 Y84.466 E33.43678
G1 X58.264 Y84.883 E33.45088
G1 X58.374 Y85.291 E33.46495
G1 X58.518 Y85.689 E33.47905
G1 X58.697 Y86.074 E33.4932
G1 X58.909 Y86.44 E33.50729
G1 X59.151 Y86.786 E33.52135
G1 X59.424 Y87.11 E33.53546
G1 X59.723 Y87.409 E33.54955
G1 X60.047 Y87.682 E33.56366
G1 X60.394 Y87.924 E33.57775
G1 X60.76 Y88.136 E33.59184
G1 X61.143 Y88.314 E33.60591
G1 X61.541 Y88.46 E33.62003
G1 X61.943 Y88.567 E33.63389
G1 X62.166 Y88.612 E33.64147
G1 X62.578 Y88.666 E33.65531
G1 X63 Y88.683 E33.66938
G1 X63.423 Y88.666 E33.68348
G1 X63.841 Y88.61 E33.69753
G1 X64.255 Y88.52 E33.71164
G0 F2625 X64.28 Y88.616
G0 X61.893 Y92.326
G0 X61.963 Y92.396
G1 F900 X61.963 Y118.47 E34.58017
G1 X99.788 Y118.471 E35.84014
G1 X100.038 Y118.471 E35.84847
G1 X100.038 Y118.221 E35.85385
G1 X100.037 Y92.396 E36.71409
G1 X61.963 Y92.396 E37.98235
G0 F2625 X61.893 Y92.326
G0 X100.28 Y88.616
G0 X100.255 Y88.52
G1 F900 X100.659 Y88.391 E37.99648
G1 X101.05 Y88.23 E38.01056
G1 X101.425 Y88.035 E38.02464
G1 X101.783 Y87.807 E38.03878
G1 X102.118 Y87.549 E38.05287
G1 X102.43 Y87.263 E38.06697
G1 X102.716 Y86.952 E38.08104
G1 X102.974 Y86.615 E38.09518
G1 X103.201 Y86.258 E38.10927
G1 X103.397 Y85.883 E38.12336
G1 X103.558 Y85.492 E38.13745
G1 X103.683 Y85.098 E38.15122
G1 X103.737 Y84.876 E38.15883
G1 X103.809 Y84.466 E38.17269
G1 X103.846 Y84.045 E38.18677
G1 X103.846 Y83.621 E38.2009
G1 X103.809 Y83.2 E38.21497
G1 X103.736 Y82.784 E38.22904
G1 X103.626 Y82.375 E38.24315
G1 X103.481 Y81.977 E38.25726
G1 X103.303 Y81.593 E38.27136
G1 X103.091 Y81.227 E38.28545
G1 X102.849 Y80.88 E38.29954
G1 X102.576 Y80.556 E38.31365
G1 X102.277 Y80.256 E38.32776
G1 X101.952 Y79.985 E38.34186
G1 X101.606 Y79.742 E38.35594
G1 X101.24 Y79.531 E38.37001
G1 X100.857 Y79.352 E38.3841
G1 X100.458 Y79.206 E38.39825
G1 X100.049 Y79.098 E38.41234
G1 X99.634 Y79.024 E38.42638
G1 X99.212 Y78.987 E38.44049
G1 X98.788 Y78.987 E38.45462
G1 X98.366 Y79.024 E38.46873
G1 X97.951 Y79.098 E38.48277
G1 X97.542 Y79.206 E38.49686
G1 X97.143 Y79.352 E38.51101
G1 X96.76 Y79.531 E38.5251
G1 X96.394 Y79.742 E38.53917
G1 X96.048 Y79.985 E38.55325
G1 X95.723 Y80.256 E38.56735
G1 X95.424 Y80.556 E38.58146
G1 X95.151 Y80.88 E38.59557
G1 X94.909 Y81.227 E38.60966
G1 X94.697 Y81.593 E38.62375
G1 X94.519 Y81.977 E38.63785
G1 X94.374 Y82.374 E38.65193
G1 X94.266 Y82.775 E38.66576
G1 X94.221 Y82.999 E38.67337
G1 X94.169 Y83.403 E38.68694
G1 X94.154 Y83.629 E38.69448
G1 X94.154 Y84.045 E38.70834
G1 X94.191 Y84.466 E38.72242
G1 X94.264 Y84.883 E38.73652
G1 X94.374 Y85.291 E38.7506
G1 X94.518 Y85.689 E38.7647
G1 X94.697 Y86.074 E38.77884
G1 X94.909 Y86.44 E38.79293
G1 X95.151 Y86.786 E38.80699
G1 X95.424 Y87.11 E38.82111
G1 X95.723 Y87.409 E38.83519
G1 X96.047 Y87.682 E38.8493
G1 X96.394 Y87.924 E38.8634
G1 X96.76 Y88.136 E38.87748
G1 X97.143 Y88.314 E38.89155
G1 X97.541 Y88.46 E38.90567
G1 X97.943 Y88.567 E38.91953
G1 X98.166 Y88.612 E38.92711
G1 X98.578 Y88.666 E38.94095
G1 X99 Y88.683 E38.95502
G1 X99.423 Y88.666 E38.96912
G1 X99.841 Y88.61 E38.98317
G1 X100.255 Y88.52 E38.99728
G0 F2625 X100.28 Y88.616
G0 X103.885 Y126.82
G0 X103.776 Y128.084
G0 X103.433 Y129.099
G0 X102.746 Y130.177
G0 X101.805 Y131.039
G0 X100.888 Y131.516
G0 X100.28 Y131.816
G0 X100.255 Y131.72
G1 F900 X100.659 Y131.591 E39.01141
G1 X101.05 Y131.43 E39.02549
G1 X101.425 Y131.235 E39.03957
G1 X101.783 Y131.007 E39.05371
G1 X102.118 Y130.749 E39.0678
G1 X102.43 Y130.463 E39.08189
G1 X102.716 Y130.152 E39.09597
G1 X102.974 Y129.815 E39.11011
G1 X103.201 Y129.458 E39.1242
G1 X103.397 Y129.083 E39.13829
G1 X103.558 Y128.692 E39.15238
G1 X103.683 Y128.298 E39.16615
G1 X103.737 Y128.076 E39.17376
G1 X103.809 Y127.666 E39.18762
G1 X103.846 Y127.245 E39.2017
G1 X103.846 Y126.821 E39.21582
G1 X103.809 Y126.4 E39.2299
G1 X103.736 Y125.984 E39.24397
G1 X103.626 Y125.575 E39.25808
G1 X103.481 Y125.177 E39.27219
G1 X103.303 Y124.793 E39.28629
G1 X103.091 Y124.427 E39.30038
G1 X102.849 Y124.08 E39.31447
G1 X102.576 Y123.756 E39.32858
G1 X102.277 Y123.456 E39.34269
G1 X101.952 Y123.185 E39.35679
G1 X101.606 Y122.942 E39.37087
G1 X101.24 Y122.731 E39.38494
G1 X100.857 Y122.552 E39.39903
G1 X100.458 Y122.406 E39.41318
G1 X100.049 Y122.298 E39.42727
G1 X99.634 Y122.224 E39.44131
G1 X99.212 Y122.187 E39.45542
G1 X98.788 Y122.187 E39.46955
G1 X98.366 Y122.224 E39.48366
G1 X97.951 Y122.298 E39.4977
G1 X97.542 Y122.406 E39.51179
G1 X97.143 Y122.552 E39.52594
G1 X96.76 Y122.731 E39.54002
G1 X96.394 Y122.942 E39.5541
G1 X96.048 Y123.185 E39.56818
G1 X95.723 Y123.456 E39.58228
G1 X95.424 Y123.756 E39.59639
G1 X95.151 Y124.08 E39.6105
G1 X94.909 Y124.427 E39.62459
G1 X94.697 Y124.793 E39.63868
G1 X94.519 Y125.177 E39.65278
G1 X94.374 Y125.574 E39.66686
G1 X94.266 Y125.975 E39.68069
G1 X94.221 Y126.199 E39.6883
G1 X94.169 Y126.603 E39.70187
G1 X94.154 Y126.829 E39.70941
G1 X94.154 Y127.245 E39.72327
G1 X94.191 Y127.666 E39.73735
G1 X94.264 Y128.083 E39.75145
G1 X94.374 Y128.491 E39.76553
G1 X94.518 Y128.889 E39.77962
G1 X94.697 Y129.274 E39.79377
G1 X94.909 Y129.64 E39.80786
G1 X95.151 Y129.986 E39.82192
G1 X95.424 Y130.31 E39.83603
G1 X95.723 Y130.609 E39.85012
G1 X96.047 Y130.882 E39.86423
G1 X96.394 Y131.124 E39.87832
G1 X96.76 Y131.336 E39.89241
G1 X97.143 Y131.514 E39.90648
G1 X97.541 Y131.66 E39.9206
G1 X97.943 Y131.767 E39.93446
G1 X98.166 Y131.812 E39.94204
G1 X98.578 Y131.866 E39.95588
G1 X99 Y131.883 E39.96995
G1 X99.423 Y131.866 E39.98405
G1 X99.841 Y131.81 E39.9981
G1 X100.255 Y131.72 E40.01221
G0 F2625 X100.28 Y131.816
G0 X99.244 Y131.902
G0 X64.28 Y131.816
G0 X64.255 Y131.72
G1 F900 X64.659 Y131.591 E40.02634
G1 X65.05 Y131.43 E40.04042
G1 X65.425 Y131.235 E40.0545
G1 X65.783 Y131.007 E40.06864
G1 X66.118 Y130.749 E40.08272
G1 X66.43 Y130.463 E40.09682
G1 X66.716 Y130.152 E40.1109
G1 X66.974 Y129.815 E40.12503
G1 X67.201 Y129.458 E40.13913
G1 X67.397 Y129.083 E40.15322
G1 X67.558 Y128.692 E40.16731
G1 X67.683 Y128.298 E40.18108
G1 X67.737 Y128.076 E40.18869
G1 X67.809 Y127.666 E40.20255
G1 X67.846 Y127.245 E40.21663
G1 X67.846 Y126.821 E40.23075
G1 X67.809 Y126.4 E40.24483
G1 X67.736 Y125.984 E40.2589
G1 X67.626 Y125.575 E40.27301
G1 X67.481 Y125.177 E40.28712
G1 X67.303 Y124.793 E40.30122
G1 X67.091 Y124.427 E40.31531
G1 X66.849 Y124.08 E40.3294
G1 X66.576 Y123.756 E40.34351
G1 X66.277 Y123.456 E40.35762
G1 X65.952 Y123.185 E40.37172
G1 X65.606 Y122.942 E40.3858
G1 X65.24 Y122.731 E40.39987
G1 X64.857 Y122.552 E40.41395
G1 X64.458 Y122.406 E40.42811
G1 X64.049 Y122.298 E40.4422
G1 X63.634 Y122.224 E40.45624
G1 X63.212 Y122.187 E40.47035
G1 X62.788 Y122.187 E40.48447
G1 X62.366 Y122.224 E40.49859
G1 X61.951 Y122.298 E40.51263
G1 X61.542 Y122.406 E40.52672
G1 X61.143 Y122.552 E40.54087
G1 X60.76 Y122.731 E40.55495
G1 X60.394 Y122.942 E40.56903
G1 X60.048 Y123.185 E40.58311
G1 X59.723 Y123.456 E40.59721
G1 X59.424 Y123.756 E40.61131
G1 X59.151 Y124.08 E40.62543
G1 X58.909 Y124.427 E40.63952
G1 X58.697 Y124.793 E40.65361
G1 X58.519 Y125.177 E40.66771
G1 X58.374 Y125.574 E40.68179
G1 X58.266 Y125.975 E40.69562
G1 X58.221 Y126.199 E40.70323
G1 X58.169 Y126.603 E40.7168
G1 X58.154 Y126.829 E40.72434
G1 X58.154 Y127.245 E40.7382
G1 X58.191 Y127.666 E40.75228
G1 X58.264 Y128.083 E40.76638
G1 X58.374 Y128.491 E40.78045
G1 X58.518 Y128.889 E40.79455
G1 X58.697 Y129.274 E40.8087
G1 X58.909 Y129.64 E40.82279
G1 X59.151 Y129.986 E40.83685
G1 X59.424 Y130.31 E40.85096
G1 X59.723 Y130.609 E40.86505
G1 X60.047 Y130.882 E40.87916
G1 X60.394 Y131.124 E40.89325
G1 X60.76 Y131.336 E40.90734
G1 X61.143 Y131.514 E40.92141
G1 X61.541 Y131.66 E40.93553
G1 X61.943 Y131.767 E40.94939
G1 X62.166 Y131.812 E40.95697
G1 X62.578 Y131.866 E40.97081
G1 X63 Y131.883 E40.98488
G1 X63.423 Y131.866 E40.99898
G1 X63.841 Y131.81 E41.01303
G1 X64.255 Y131.72 E41.02714
G0 F2625 X64.126 Y131.236
;TYPE:WALL-OUTER
G1 F900 X64.488 Y131.121 E41.03979
G1 X64.839 Y130.976 E41.05244
G1 X65.175 Y130.801 E41.06506
G1 X65.496 Y130.597 E41.07773
G1 X65.796 Y130.366 E41.09034
G1 X66.076 Y130.109 E41.103
G1 X66.333 Y129.83 E41.11564
G1 X66.564 Y129.528 E41.1283
G1 X66.768 Y129.208 E41.14094
G1 X66.943 Y128.872 E41.15356
G1 X67.088 Y128.521 E41.16621
G1 X67.201 Y128.162 E41.17875
G1 X67.248 Y127.973 E41.18524
G1 X67.313 Y127.601 E41.19782
G1 X67.346 Y127.223 E41.21046
G1 X67.346 Y126.843 E41.22311
G1 X67.313 Y126.465 E41.23575
G1 X67.247 Y126.092 E41.24837
G1 X67.149 Y125.725 E41.26102
G1 X67.019 Y125.368 E41.27368
G1 X66.859 Y125.024 E41.28632
G1 X66.669 Y124.696 E41.29894
G1 X66.452 Y124.385 E41.31158
G1 X66.207 Y124.094 E41.32425
G1 X65.939 Y123.825 E41.3369
G1 X65.648 Y123.582 E41.34953
G1 X65.337 Y123.364 E41.36218
G1 X65.009 Y123.175 E41.37479
G1 X64.665 Y123.014 E41.38744
G1 X64.308 Y122.884 E41.40009
G1 X63.941 Y122.787 E41.41274
G1 X63.568 Y122.72 E41.42536
G1 X63.19 Y122.687 E41.438
G1 X62.81 Y122.687 E41.45066
G1 X62.432 Y122.72 E41.4633
G1 X62.059 Y122.787 E41.47592
G1 X61.692 Y122.884 E41.48857
G1 X61.335 Y123.014 E41.50122
G1 X60.991 Y123.175 E41.51387
G1 X60.663 Y123.364 E41.52648
