;Generated by Cura LulzBot Edition GCodeWriter Version: 3.6.20
;FLAVOR:Marlin
;TIME:8594
;Filament used: 4.41819m
;Layer height: 0.25
;Generated with Cura_SteamEngine 3.6.20
M82 ;absolute extrusion mode
;This G-Code has been generated specifically for the LulzBot Mini 2 with SE 0.5mm Tool Head
M73 P0                  ; clear GLCD progress bar
M75 					; Start GLCD Print Timer
G26 					; clear potential 'probe fail' condition
M107 					; disable fans
M420 S0                 ; disable leveling matrix
G90 					; absolute positioning
M82 					; set extruder to absolute mode
G92 E0 					; set extruder position to 0
M140 S60.0 ; start bed heating up
G28 					; home all axes
G0 X0 Y187 Z156 F200 			; move away from endstops
M117 Mini 2 Wiping...			; progress indicator message on LCD
M109 R140 	; soften filament before retraction
G1 E-15 F75 				; retract filament
M109 R140 	; wait for extruder to reach wiping temp
G1 X45 Y176 F11520 			; move above wiper pad
G1 Z0 F1200 				; push nozzle into wiper
G1 X45 Y178 Z-.5 F4000		; wiping
G1 X55 Y176 Z-.5 F4000		; wiping
G1 X45 Y177 Z0 F4000		; wiping
G1 X55 Y176 F4000		; wiping
G1 X45 Y178 F4000		; wiping
G1 X55 Y176 F4000		; wiping
G1 X45 Y178 F4000		; wiping
G1 X55 Y176 F4000		; wiping
G1 X60 Y178 F4000		; wiping
G1 X80 Y176 F4000		; wiping
G1 X60 Y178 F4000		; wiping
G1 X80 Y176 F4000		; wiping
G1 X60 Y178 F4000		; wiping
G1 X90 Y176 F4000		; wiping
G1 X80 Y178 F4000		; wiping
G1 X100 Y176 F4000		; wiping
G1 X80 Y178 F4000		; wiping
G1 X100 Y176 F4000		; wiping
G1 X80 Y178 F4000		; wiping
G1 X100 Y176 F4000		; wiping
G1 X110 Y178 F4000		; wiping
G1 X100 Y176 F4000		; wiping
G1 X110 Y178 F4000		; wiping
G1 X100 Y176 F4000		; wiping
G1 X110 Y178 F4000		; wiping
G1 X115 Y176 Z-0.5 F1000	; wiping
G1 Z10					; raise extruder
G28 X0 Y0				; home X and Y
M109 R140	; wait for extruder to reach probe temp
M204 S300				; set probing acceleration
G29					; start auto-leveling sequence
M420 S1                     ; enable leveling matrix
M425 Z			     		; use measured Z backlash for compensation
M425 Z F0		     		; turn off measured Z backlash compensation. (if activated in the quality settings, this command will automatically be ignored)
M204 S2000				; restore standard acceleration
G1 X5 Y15 Z10 F5000			; move up off last probe point
G4 S1					; pause
M400					; wait for moves to finish
M117 Heating...				; progress indicator message on LCD
M109 R210 ; wait for extruder to reach initial printing temp
M190 R60.0 ; wait for bed to reach printing temp
G1 Z2 E0 F75				; prime tiny bit of filment into the nozzle
M117 Mini 2 Printing...		; progress indicator message on LCD

M221 S100 T0
G92 E0
G1 F600 E-1.75
;LAYER_COUNT:16
;LAYER:0
M107
G0 F2625 X20.493 Y12.504 Z0.425
;TYPE:SKIRT
G1 F600 E0
G1 F900 X20.823 Y12.117 E0.01694
G1 X21.21 Y11.785 E0.03393
G1 X21.645 Y11.519 E0.05091
G1 X22.115 Y11.323 E0.06787
G1 X22.61 Y11.204 E0.08483
G1 X23.123 Y11.163 E0.10197
G1 X138.878 Y11.164 E3.95782
G1 X139.386 Y11.204 E3.97479
G1 X139.881 Y11.323 E3.99175
G1 X140.352 Y11.518 E4.00873
G1 X140.787 Y11.784 E4.02571
G1 X141.174 Y12.114 E4.04265
G1 X141.506 Y12.501 E4.05964
G1 X141.772 Y12.936 E4.07662
G1 X141.968 Y13.406 E4.09359
G1 X142.087 Y13.901 E4.11054
G1 X142.128 Y14.415 E4.12772
G1 X142.084 Y143.72 E8.43492
G1 X142.044 Y144.228 E8.45189
G1 X141.925 Y144.723 E8.46885
G1 X141.73 Y145.194 E8.48583
G1 X141.464 Y145.629 E8.50281
G1 X141.133 Y146.016 E8.51978
G1 X140.746 Y146.347 E8.53674
G1 X140.311 Y146.614 E8.55374
G1 X139.841 Y146.809 E8.57069
G1 X139.26 Y146.941 E8.59054
G1 X137.164 Y147.218 E8.66096
G1 X131.751 Y148.146 E8.8439
G1 X126.44 Y149.369 E9.02545
G1 X121.717 Y150.713 E9.18902
G1 X121.217 Y150.813 E9.206
G1 X120.826 Y150.837 E9.21905
G1 X41.114 Y150.823 E11.87429
G1 X40.606 Y150.783 E11.89126
G1 X40.242 Y150.704 E11.90367
G1 X34.174 Y149.013 E12.1135
G1 X31.526 Y148.402 E12.20402
G1 X28.879 Y147.872 E12.29394
G1 X22.628 Y146.912 E12.50461
G1 X22.132 Y146.796 E12.52157
G1 X21.661 Y146.603 E12.53853
G1 X21.225 Y146.339 E12.55551
G1 X20.836 Y146.01 E12.57248
G1 X20.503 Y145.624 E12.58946
G1 X20.234 Y145.191 E12.60644
G1 X20.037 Y144.722 E12.62338
G1 X19.915 Y144.227 E12.64037
G1 X19.872 Y143.7 E12.65798
G1 X19.873 Y14.413 E16.96458
G1 X19.913 Y13.905 E16.98155
G1 X20.032 Y13.41 E16.99851
G1 X20.227 Y12.939 E17.01549
G1 X20.493 Y12.504 E17.03247
G1 F600 E15.28247
;MESH:
G0 F2625 X22.448 Y15.168
G0 X23.877 Y15.168
G0 X62.158 Y66.246
G0 X62.228 Y66.316
;TYPE:WALL-INNER
G1 F600 E17.03247
G1 F900 X62.228 Y91.816 E17.88189
G1 X99.728 Y91.816 E19.13103
G1 X99.728 Y66.316 E19.98044
G1 X62.228 Y66.316 E21.22958
G0 F2625 X62.158 Y66.246
G0 X62.2 Y91.844
G0 X128.562 Y135.935
G0 X128.519 Y136.025
G1 F900 X125.623 Y135.994 E21.32605
G1 X124.071 Y137.512 E21.39837
G1 X123.762 Y141.556 E21.53347
G1 X120.43 Y146.846 E21.74172
G1 X41.526 Y146.833 E24.37004
G1 X38.196 Y141.543 E24.57826
G1 X37.888 Y137.498 E24.71339
G1 X36.337 Y135.979 E24.7857
G1 X33.442 Y136.01 E24.88214
G1 X31.776 Y138.051 E24.9699
G1 X31.81 Y141.185 E25.0743
G1 X30.021 Y142.959 E25.15823
G1 X23.863 Y142.959 E25.36335
G1 X23.863 Y15.154 E29.62058
G1 X137.887 Y15.154 E33.41876
G1 X138.137 Y15.154 E33.42709
G1 X138.137 Y15.404 E33.43248
G1 X138.094 Y142.978 E37.68201
G1 X131.937 Y142.976 E37.88711
G1 X130.148 Y141.201 E37.97105
G1 X130.183 Y138.068 E38.07542
G1 X128.519 Y136.025 E38.16319
G0 F2625 X128.279 Y136.522
;TYPE:WALL-OUTER
G1 F900 X125.825 Y136.496 E38.24494
G1 X124.555 Y137.738 E38.30411
G1 X124.252 Y141.717 E38.43704
G1 X120.706 Y147.346 E38.65864
G1 X41.25 Y147.333 E41.30535
G1 X37.706 Y141.703 E41.52695
G1 X37.404 Y137.724 E41.65987
G1 X36.135 Y136.481 E41.71905
G1 X33.681 Y136.507 E41.80079
G1 X32.278 Y138.227 E41.87473
G1 X32.312 Y141.391 E41.98013
G1 X30.227 Y143.459 E42.07795
G1 X23.363 Y143.459 E42.30659
G1 X23.363 Y14.654 E46.59713
G1 X138.387 Y14.654 E50.42863
G1 X138.637 Y14.654 E50.43695
G1 X138.637 Y14.904 E50.44234
G1 X138.594 Y143.478 E54.72519
G1 X131.731 Y143.476 E54.9538
G1 X129.646 Y141.407 E55.05164
G1 X129.681 Y138.243 E55.15704
G1 X128.279 Y136.522 E55.23098
G0 F2625 X128.029 Y136.52
G0 X128.036 Y135.92
G0 X62.2 Y91.844
G0 X62.128 Y66.816
G0 X62.728 Y66.816
G1 F900 X62.728 Y91.316 E56.04709
G1 X99.228 Y91.316 E57.26291
G1 X99.228 Y66.816 E58.07902
G1 X62.728 Y66.816 E59.29485
G0 F2625 X62.728 Y67.066
G0 X62.128 Y67.066
G0 X61.738 Y65.826
;TYPE:SKIN
G1 F900 X61.738 Y92.306 E60.1769
G1 X100.218 Y92.306 E61.45869
G1 X100.218 Y65.826 E62.34075
G1 X61.738 Y65.826 E63.62253
G0 F2625 X24.353 Y15.644
G1 F900 X137.647 Y15.644 E67.39639
G1 X137.604 Y142.488 E71.62161
G1 X132.137 Y142.486 E71.80372
G1 X130.64 Y141.001 E71.87396
G1 X130.675 Y137.896 E71.97739
G1 X128.754 Y135.537 E72.07873
G1 X125.425 Y135.502 E72.18963
G1 X123.597 Y137.291 E72.27483
G1 X123.284 Y141.396 E72.41196
G1 X120.16 Y146.356 E72.60722
G1 X41.797 Y146.343 E75.21752
G1 X38.674 Y141.383 E75.41276
G1 X38.362 Y137.277 E75.54993
G1 X36.535 Y135.487 E75.63513
G1 X33.207 Y135.522 E75.74599
G1 X31.284 Y137.879 E75.84732
G1 X31.318 Y140.983 E75.95072
G1 X29.82 Y142.469 E76.02101
G1 X24.353 Y142.469 E76.20312
G1 X24.353 Y15.644 E80.4277
G0 F2625 X137.421 Y16.505
G1 F900 X136.784 Y15.869 E80.45769
G0 F2625 X136.077 Y15.869
G1 F900 X137.421 Y17.213 E80.521
G0 F2625 X137.421 Y17.92
G1 F900 X135.37 Y15.869 E80.61762
G0 F2625 X134.663 Y15.869
G1 F900 X137.42 Y18.626 E80.74749
G0 F2625 X137.42 Y19.333
G1 F900 X133.956 Y15.869 E80.91068
G0 F2625 X133.249 Y15.869
G1 F900 X137.42 Y20.04 E81.10716
G0 F2625 X137.419 Y20.747
G1 F900 X132.542 Y15.869 E81.33693
G0 F2625 X131.835 Y15.869
G1 F900 X137.419 Y21.454 E81.60001
G0 F2625 X137.419 Y22.161
G1 F900 X131.128 Y15.869 E81.89639
G0 F2625 X130.42 Y15.869
G1 F900 X137.419 Y22.867 E82.22607
G0 F2625 X137.419 Y23.574
G1 F900 X129.713 Y15.869 E82.58906
G0 F2625 X129.006 Y15.869
G1 F900 X137.419 Y24.282 E82.98538
G0 F2625 X137.418 Y24.988
G1 F900 X128.299 Y15.869 E83.41496
G0 F2625 X127.592 Y15.869
G1 F900 X137.418 Y25.695 E83.87784
G0 F2625 X137.418 Y26.402
G1 F900 X126.885 Y15.869 E84.37403
G0 F2625 X126.178 Y15.869
G1 F900 X137.417 Y27.109 E84.9035
G0 F2625 X137.417 Y27.816
G1 F900 X125.471 Y15.869 E85.46628
G0 F2625 X124.764 Y15.869
G1 F900 X137.417 Y28.522 E86.06233
G0 F2625 X137.417 Y29.229
G1 F900 X124.056 Y15.869 E86.69172
G0 F2625 X123.349 Y15.869
G1 F900 X137.417 Y29.936 E87.35441
G0 F2625 X137.416 Y30.643
G1 F900 X122.642 Y15.869 E88.05038
G0 F2625 X121.935 Y15.869
G1 F900 X137.416 Y31.35 E88.77966
G0 F2625 X137.416 Y32.057
G1 F900 X121.228 Y15.869 E89.54225
G0 F2625 X120.521 Y15.869
G1 F900 X137.415 Y32.763 E90.33809
G0 F2625 X137.415 Y33.47
G1 F900 X119.814 Y15.869 E91.16723
G0 F2625 X119.107 Y15.869
G1 F900 X137.415 Y34.178 E92.02971
G0 F2625 X137.414 Y34.884
G1 F900 X118.4 Y15.869 E92.92545
G0 F2625 X117.692 Y15.869
G1 F900 X137.414 Y35.591 E93.85451
G0 F2625 X137.414 Y36.298
G1 F900 X116.985 Y15.869 E94.81688
G0 F2625 X116.278 Y15.869
G1 F900 X137.414 Y37.005 E95.81255
G0 F2625 X137.414 Y37.712
G1 F900 X115.571 Y15.869 E96.84153
G0 F2625 X114.864 Y15.869
G1 F900 X137.414 Y38.419 E97.90381
G0 F2625 X137.413 Y39.125
G1 F900 X114.157 Y15.869 E98.99936
G0 F2625 X113.45 Y15.869
G1 F900 X137.413 Y39.832 E100.12821
G0 F2625 X137.413 Y40.539
G1 F900 X112.743 Y15.869 E101.29036
G0 F2625 X112.036 Y15.869
G1 F900 X137.412 Y41.246 E102.48579
G0 F2625 X137.412 Y41.953
G1 F900 X111.329 Y15.869 E103.71453
G0 F2625 X110.621 Y15.869
G1 F900 X137.412 Y42.66 E104.9766
G0 F2625 X137.412 Y43.366
G1 F900 X109.914 Y15.869 E106.27196
G0 F2625 X109.207 Y15.869
G1 F900 X137.412 Y44.073 E107.60061
G0 F2625 X137.412 Y44.781
G1 F900 X108.5 Y15.869 E108.9626
G0 F2625 X107.793 Y15.869
G1 F900 X137.411 Y45.487 E110.35784
G0 F2625 X137.411 Y46.194
G1 F900 X107.086 Y15.869 E111.78639
G0 F2625 X106.379 Y15.869
G1 F900 X137.411 Y46.901 E113.24824
G0 F2625 X137.41 Y47.608
G1 F900 X105.672 Y15.869 E114.74338
G0 F2625 X104.965 Y15.869
G1 F900 X137.41 Y48.315 E116.27182
G0 F2625 X137.41 Y49.022
G1 F900 X104.257 Y15.869 E117.83359
G0 F2625 X103.55 Y15.869
G1 F900 X137.409 Y49.728 E119.42862
G0 F2625 X137.409 Y50.435
G1 F900 X102.843 Y15.869 E121.05695
G0 F2625 X102.136 Y15.869
G1 F900 X137.409 Y51.142 E122.71859
G0 F2625 X137.409 Y51.849
G1 F900 X101.429 Y15.869 E124.41354
G0 F2625 X100.722 Y15.869
G1 F900 X137.409 Y52.556 E126.14179
G0 F2625 X137.409 Y53.263
G1 F900 X100.015 Y15.869 E127.90334
G0 F2625 X99.308 Y15.869
G1 F900 X137.408 Y53.969 E129.69816
G0 F2625 X137.408 Y54.677
G1 F900 X98.601 Y15.869 E131.5263
G0 F2625 X97.893 Y15.869
G1 F900 X137.408 Y55.384 E133.38777
G0 F2625 X137.407 Y56.09
G1 F900 X97.186 Y15.869 E135.2825
G0 F2625 X96.479 Y15.869
G1 F900 X137.407 Y56.797 E137.21053
G0 F2625 X137.407 Y57.504
G1 F900 X95.772 Y15.869 E139.17187
G0 F2625 X95.065 Y15.869
G1 F900 X137.407 Y58.211 E141.16652
G0 F2625 X137.407 Y58.918
G1 F900 X94.358 Y15.869 E143.19447
G0 F2625 X93.651 Y15.869
G1 F900 X137.407 Y59.625 E145.25573
G0 F2625 X137.406 Y60.331
G1 F900 X92.944 Y15.869 E147.35024
G0 F2625 X92.237 Y15.869
G1 F900 X137.406 Y61.038 E149.47806
G0 F2625 X137.406 Y61.745
G1 F900 X91.53 Y15.869 E151.63919
G0 F2625 X90.822 Y15.869
G1 F900 X137.405 Y62.452 E153.83362
G0 F2625 X137.405 Y63.159
G1 F900 X90.115 Y15.869 E156.06135
G0 F2625 X89.408 Y15.869
G1 F900 X137.405 Y63.866 E158.32239
G0 F2625 X137.404 Y64.572
G1 F900 X88.701 Y15.869 E160.61669
G0 F2625 X87.994 Y15.869
G1 F900 X137.404 Y65.28 E162.94432
G0 F2625 X137.404 Y65.987
G1 F900 X87.287 Y15.869 E165.30525
G0 F2625 X86.58 Y15.869
G1 F900 X137.404 Y66.693 E167.69947
G0 F2625 X137.404 Y67.4
G1 F900 X85.873 Y15.869 E170.12699
G0 F2625 X85.166 Y15.869
G1 F900 X137.404 Y68.107 E172.58781
G0 F2625 X137.403 Y68.814
G1 F900 X84.458 Y15.869 E175.08195
G0 F2625 X83.751 Y15.869
G1 F900 X137.403 Y69.521 E177.60938
G0 F2625 X137.403 Y70.228
G1 F900 X83.044 Y15.869 E180.17012
G0 F2625 X82.337 Y15.869
G1 F900 X137.402 Y70.934 E182.76412
G0 F2625 X137.402 Y71.641
G1 F900 X81.63 Y15.869 E185.39143
G0 F2625 X80.923 Y15.869
G1 F900 X137.402 Y72.349 E188.05206
G0 F2625 X137.402 Y73.055
G1 F900 X80.216 Y15.869 E190.74598
G0 F2625 X79.509 Y15.869
G1 F900 X137.402 Y73.762 E193.4732
G0 F2625 X137.402 Y74.469
G1 F900 X78.802 Y15.869 E196.23373
G0 F2625 X78.094 Y15.869
G1 F900 X137.401 Y75.176 E199.02756
G0 F2625 X137.401 Y75.883
G1 F900 X77.387 Y15.869 E201.8547
G0 F2625 X76.68 Y15.869
G1 F900 X137.401 Y76.59 E204.71514
G0 F2625 X137.4 Y77.296
G1 F900 X75.973 Y15.869 E207.60884
G0 F2625 X75.266 Y15.869
G1 F900 X137.4 Y78.003 E210.53585
G0 F2625 X137.4 Y78.71
G1 F900 X74.559 Y15.869 E213.49616
G0 F2625 X73.852 Y15.869
G1 F900 X137.4 Y79.417 E216.48977
G0 F2625 X137.4 Y80.124
G1 F900 X73.145 Y15.869 E219.5167
G0 F2625 X72.438 Y15.869
G1 F900 X137.4 Y80.831 E222.57692
G0 F2625 X137.399 Y81.537
G1 F900 X71.731 Y15.869 E225.67041
G0 F2625 X71.023 Y15.869
G1 F900 X137.399 Y82.245 E228.79725
G0 F2625 X137.399 Y82.952
G1 F900 X70.316 Y15.869 E231.95739
G0 F2625 X69.609 Y15.869
G1 F900 X137.398 Y83.658 E235.15079
G0 F2625 X137.398 Y84.365
G1 F900 X68.902 Y15.869 E238.3775
G0 F2625 X68.195 Y15.869
G1 F900 X137.398 Y85.072 E241.63751
G0 F2625 X137.397 Y85.779
G1 F900 X67.488 Y15.869 E244.93081
G0 F2625 X66.781 Y15.869
G1 F900 X137.397 Y86.486 E248.25741
G0 F2625 X137.397 Y87.193
G1 F900 X66.074 Y15.869 E251.61731
G0 F2625 X65.367 Y15.869
G1 F900 X137.397 Y87.899 E255.0105
G0 F2625 X137.397 Y88.606
G1 F900 X64.659 Y15.869 E258.43701
G0 F2625 X63.952 Y15.869
G1 F900 X137.397 Y89.313 E261.89683
G0 F2625 X137.396 Y90.02
G1 F900 X63.245 Y15.869 E265.38994
G0 F2625 X62.538 Y15.869
G1 F900 X137.396 Y90.727 E268.91635
G0 F2625 X137.396 Y91.434
G1 F900 X61.831 Y15.869 E272.47606
G0 F2625 X61.124 Y15.869
G1 F900 X137.395 Y92.14 E276.06903
G0 F2625 X137.395 Y92.848
G1 F900 X60.417 Y15.869 E279.69533
G0 F2625 X59.71 Y15.869
G1 F900 X137.395 Y93.555 E283.35494
G0 F2625 X137.395 Y94.261
G1 F900 X59.003 Y15.869 E287.04782
G0 F2625 X58.296 Y15.869
G1 F900 X137.395 Y94.968 E290.77402
G0 F2625 X137.395 Y95.675
G1 F900 X57.588 Y15.869 E294.53354
G0 F2625 X56.881 Y15.869
G1 F900 X137.394 Y96.382 E298.32634
G0 F2625 X137.394 Y97.089
G1 F900 X56.174 Y15.869 E302.15245
G0 F2625 X55.467 Y15.869
G1 F900 X137.394 Y97.796 E306.01186
G0 F2625 X137.393 Y98.502
G1 F900 X54.76 Y15.869 E309.90454
G0 F2625 X54.053 Y15.869
G1 F900 X137.393 Y99.209 E313.83051
G0 F2625 X137.393 Y99.917
G1 F900 X53.346 Y15.869 E317.78982
G0 F2625 X52.639 Y15.869
G1 F900 X137.392 Y100.623 E321.78239
G0 F2625 X137.392 Y101.33
G1 F900 X51.932 Y15.869 E325.80826
G0 F2625 X51.224 Y15.869
G1 F900 X137.392 Y102.037 E329.86746
G0 F2625 X137.392 Y102.744
G1 F900 X100.442 Y65.794 E331.60809
G0 F2625 X100.248 Y65.6
G1 F900 X50.517 Y15.869 E333.95082
G0 F2625 X49.81 Y15.869
G1 F900 X99.541 Y65.6 E336.29355
G0 F2625 X98.834 Y65.6
G1 F900 X49.103 Y15.869 E338.63627
G0 F2625 X48.396 Y15.869
G1 F900 X98.127 Y65.6 E340.979
G0 F2625 X97.42 Y65.6
G1 F900 X47.689 Y15.869 E343.32173
G0 F2625 X46.982 Y15.869
G1 F900 X96.713 Y65.6 E345.66445
G0 F2625 X96.006 Y65.6
G1 F900 X46.275 Y15.869 E348.00718
G0 F2625 X45.568 Y15.869
G1 F900 X95.298 Y65.6 E350.34988
G0 F2625 X94.591 Y65.6
G1 F900 X44.86 Y15.869 E352.69261
G0 F2625 X44.153 Y15.869
G1 F900 X93.884 Y65.6 E355.03533
G0 F2625 X93.177 Y65.6
G1 F900 X43.446 Y15.869 E357.37806
G0 F2625 X42.739 Y15.869
G1 F900 X92.47 Y65.6 E359.72078
G0 F2625 X91.763 Y65.6
G1 F900 X42.032 Y15.869 E362.06351
G0 F2625 X41.325 Y15.869
G1 F900 X91.056 Y65.6 E364.40624
G0 F2625 X90.349 Y65.6
G1 F900 X40.618 Y15.869 E366.74896
G0 F2625 X39.911 Y15.869
G1 F900 X89.642 Y65.6 E369.09169
G0 F2625 X88.934 Y65.6
G1 F900 X39.204 Y15.869 E371.43439
G0 F2625 X38.497 Y15.869
G1 F900 X88.227 Y65.6 E373.77709
G0 F2625 X87.52 Y65.6
G1 F900 X37.789 Y15.869 E376.11982
G0 F2625 X37.082 Y15.869
G1 F900 X86.813 Y65.6 E378.46255
G0 F2625 X86.106 Y65.6
G1 F900 X36.375 Y15.869 E380.80527
G0 F2625 X35.668 Y15.869
G1 F900 X85.399 Y65.6 E383.148
G0 F2625 X84.692 Y65.6
G1 F900 X34.961 Y15.869 E385.49072
G0 F2625 X34.254 Y15.869
G1 F900 X83.985 Y65.6 E387.83345
